static/assets/liquids/neoplasm.svg

<?xml version="1.0" encoding="UTF-8" standalone="no"?>
<!-- Created with Inkscape (http://www.inkscape.org/) -->

<svg
   version="1.1"
   id="svg2408"
   width="32"
   height="32"
   viewBox="0 0 32 32"
   sodipodi:docname="neoplasm.svg"
   inkscape:version="1.2 (dc2aedaf03, 2022-05-15)"
   xmlns:inkscape="http://www.inkscape.org/namespaces/inkscape"
   xmlns:sodipodi="http://sodipodi.sourceforge.net/DTD/sodipodi-0.dtd"
   xmlns="http://www.w3.org/2000/svg"
   xmlns:svg="http://www.w3.org/2000/svg">
  <defs
     id="defs2412" />
  <sodipodi:namedview
     id="namedview2410"
     pagecolor="#505050"
     bordercolor="#eeeeee"
     borderopacity="1"
     inkscape:showpageshadow="0"
     inkscape:pageopacity="0"
     inkscape:pagecheckerboard="0"
     inkscape:deskcolor="#505050"
     showgrid="false"
     inkscape:zoom="25.4375"
     inkscape:cx="16.019656"
     inkscape:cy="16.019656"
     inkscape:window-width="1920"
     inkscape:window-height="1001"
     inkscape:window-x="-9"
     inkscape:window-y="-9"
     inkscape:window-maximized="1"
     inkscape:current-layer="g2414" />
  <g
     inkscape:groupmode="layer"
     inkscape:label="Image"
     id="g2414">
    <g
       id="g2418">
      <path
         style="fill:#9e172c;fill-opacity:1"
         d="M 21,22.5 Q 21.25,22.25 21.625,22.125 22,22 22.5,22 23,22 23.375,22.125 23.75,22.25 24,22.5 q 0.25,0.25 0.625,0.375 L 25,23 v 0.5 q 0,0.5 0,1 0,0.5 -0.125,0.875 Q 24.75,25.75 24.5,26 24.25,26.25 24.125,26.625 24,27 23.875,27.375 23.75,27.75 23.5,28 23.25,28.25 23,28.5 22.75,28.75 22.5,29 22.25,29.25 22,29.5 21.75,29.75 21.375,29.875 21,30 20.5,30 20,30 19.5,30 19,30 18.625,29.875 18.25,29.75 18,29.5 17.75,29.25 17.5,29 17.25,28.75 17.125,28.375 17,28 17,27.5 17,27 17.125,26.625 17.25,26.25 17.5,26 17.75,25.75 18,25.5 18.25,25.25 18.5,25 18.75,24.75 19,24.5 19.25,24.25 19.5,24 19.75,23.75 20,23.5 20.25,23.25 20.5,23 20.75,22.75 21,22.5 m 4,0.875 V 23 22.875 22.75 23 q 0,0.25 0,0.5 v 0.25 -0.375"
         id="path2430" />
      <path
         style="fill:#9e172c;fill-opacity:1"
         d="M 13,18.5 Q 13.25,18.25 13.625,18.125 14,18 14.5,18 15,18 15.375,18.125 15.75,18.25 16,18.5 q 0.25,0.25 0.5,0.5 0.25,0.25 0.5,0.5 0.25,0.25 0.5,0.5 0.25,0.25 0.375,0.625 0.125,0.375 0,0.75 Q 17.75,21.75 17.5,22 17.25,22.25 17,22.5 16.75,22.75 16.5,23 16.25,23.25 16,23.5 15.75,23.75 15.375,23.875 15,24 14.5,24 14,24 13.625,23.875 13.25,23.75 13,23.5 12.75,23.25 12.5,23 12.25,22.75 12,22.5 11.75,22.25 11.5,22 11.25,21.75 11.125,21.375 11,21 11.125,20.625 11.25,20.25 11.5,20 11.75,19.75 12,19.5 12.25,19.25 12.5,19 12.75,18.75 13,18.5"
         id="path2428" />
      <path
         style="fill:#f98f4a;fill-opacity:1"
         d="M 15,12.5 Q 15.25,12.25 15.625,12.125 16,12 16.5,12 q 0.5,0 1,0 0.5,0 1,0 0.5,0 0.875,0.125 0.375,0.125 0.625,0.375 0.25,0.25 0.5,0.5 0.25,0.25 0.5,0.5 0.25,0.25 0.5,0.5 0.25,0.25 0.375,0.625 0.125,0.375 0,0.75 Q 21.75,15.75 21.5,16 21.25,16.25 21,16.5 20.75,16.75 20.5,17 20.25,17.25 20,17.5 19.75,17.75 19.375,17.875 19,18 18.625,17.875 18.25,17.75 18,17.5 17.75,17.25 17.375,17.125 17,17 16.625,16.875 16.25,16.75 16,16.5 15.75,16.25 15.5,16 15.25,15.75 15,15.5 14.75,15.25 14.5,15 14.25,14.75 14.125,14.375 14,14 14.125,13.625 14.25,13.25 14.5,13 14.75,12.75 15,12.5"
         id="path2426" />
      <path
         style="fill:#9e172c;fill-opacity:1"
         d="M 6,11.5 Q 6.25,11.25 6.625,11.125 7,11 7.5,11 8,11 8.375,11.125 8.75,11.25 9,11.5 9.25,11.75 9.625,11.875 10,12 10.375,12.125 10.75,12.25 11,12.5 q 0.25,0.25 0.625,0.375 L 12,13 v 0.5 Q 12,14 11.875,14.375 11.75,14.75 11.5,15 11.25,15.25 11,15.5 10.75,15.75 10.5,16 10.25,16.25 10,16.5 9.75,16.75 9.5,17 9.25,17.25 9.125,17.625 9,18 8.875,18.375 8.75,18.75 8.5,19 8.25,19.25 8.125,19.625 8,20 8,20.5 8,21 8.125,21.375 8.25,21.75 8.5,22 8.75,22.25 8.875,22.625 9,23 9.125,23.375 9.25,23.75 9.5,24 q 0.25,0.25 0.5,0.5 0.25,0.25 0.625,0.375 Q 11,25 11.375,25.125 11.75,25.25 12,25.5 q 0.25,0.25 0.5,0.5 0.25,0.25 0.5,0.5 0.25,0.25 0.5,0.5 0.25,0.25 0.375,0.625 0.125,0.375 0,0.75 -0.125,0.375 -0.5,0.5 Q 13,29 12.625,29.125 12.25,29.25 12,29.5 11.75,29.75 11.375,29.875 11,30 10.625,30.125 10.25,30.25 10,30.5 9.75,30.75 9.375,30.875 9,31 8.5,31 8,31 7.5,31 7,31 6.625,30.875 6.25,30.75 6,30.5 5.75,30.25 5.5,30 5.25,29.75 5,29.5 4.75,29.25 4.5,29 4.25,28.75 4,28.5 3.75,28.25 3.5,28 3.25,27.75 3.125,27.375 3,27 3,26.5 3,26 3,25.5 3,25 3.125,24.625 3.25,24.25 3.5,24 3.75,23.75 4,23.5 4.25,23.25 4.5,23 4.75,22.75 4.875,22.375 5,22 5.125,21.625 5.25,21.25 5.5,21 5.75,20.75 5.875,20.375 6,20 5.875,19.625 5.75,19.25 5.5,19 5.25,18.75 5.125,18.375 5,18 4.875,17.625 4.75,17.25 4.5,17 4.25,16.75 4.125,16.375 4,16 4,15.5 4,15 4,14.5 4,14 4.125,13.625 4.25,13.25 4.5,13 4.75,12.75 5,12.5 5.25,12.25 5.5,12 5.75,11.75 6,11.5 m 6,1.875 V 13 12.875 12.75 13 q 0,0.25 0,0.5 v 0.25 -0.375"
         id="path2424" />
      <path
         style="fill:#e05438;fill-opacity:1"
         d="M 10,1.5 Q 10.25,1.25 10.625,1.125 11,1 11.5,1 12,1 12.5,1 13,1 13.375,1.125 13.75,1.25 14,1.5 14.25,1.75 14.5,2 14.75,2.25 15,2.5 15.25,2.75 15.5,3 15.75,3.25 16,3.5 16.25,3.75 16.5,4 16.75,4.25 17,4.5 17.25,4.75 17.5,5 17.75,5.25 18,5.5 18.25,5.75 18.5,6 18.75,6.25 19,6.5 19.25,6.75 19.5,7 19.75,7.25 19.875,7.625 20,8 20.125,8.375 20.25,8.75 20.5,9 q 0.25,0.25 0.5,0.5 0.25,0.25 0.5,0.5 0.25,0.25 0.375,0.625 Q 22,11 22.125,11.375 22.25,11.75 22.5,12 22.75,12.25 22.875,12.625 23,13 23.125,13.375 23.25,13.75 23.5,14 23.75,14.25 23.875,14.625 24,15 24.125,15.375 24.25,15.75 24.5,16 24.75,16.25 24.875,16.625 25,17 25,17.5 q 0,0.5 0,1 0,0.5 0,1 0,0.5 0,1 0,0.5 0,1 0,0.5 0,1 V 23 L 24.625,22.875 Q 24.25,22.75 24,22.5 23.75,22.25 23.375,22.125 23,22 22.5,22 22,22 21.625,22.125 21.25,22.25 21,22.5 20.75,22.75 20.5,23 20.25,23.25 20,23.5 19.75,23.75 19.5,24 19.25,24.25 19,24.5 18.75,24.75 18.5,25 18.25,25.25 18,25.5 17.75,25.75 17.5,26 17.25,26.25 17.125,26.625 17,27 17,27.5 V 28 27.625 27.25 27.5 q 0,0.25 0.03125,0.46875 L 17.0625,28.1875 17.04687,28.078125 17.03124,27.96875 16.515615,27.98438 Q 16,28 15.5,28 15,28 14.46875,28 H 13.9375 V 28.09375 28.1875 28 q 0,-0.1875 -0.0625,-0.375 L 13.8125,27.4375 13.90625,27.71875 14,28 13.875,27.625 Q 13.75,27.25 13.5,27 13.25,26.75 13,26.5 12.75,26.25 12.5,26 12.25,25.75 12,25.5 11.75,25.25 11.375,25.125 11,25 10.625,24.875 10.25,24.75 10,24.5 9.75,24.25 9.5,24 9.25,23.75 9.125,23.375 9,23 8.875,22.625 8.75,22.25 8.5,22 8.25,21.75 8.125,21.375 8,21 8,20.5 8,20 8.125,19.625 8.25,19.25 8.5,19 8.75,18.75 8.875,18.375 9,18 9.125,17.625 9.25,17.25 9.5,17 9.75,16.75 10,16.5 10.25,16.25 10.5,16 10.75,15.75 11,15.5 11.25,15.25 11.5,15 11.75,14.75 11.875,14.375 12,14 12,13.5 q 0,-0.5 0,-1 0,-0.5 0,-1 0,-0.5 0,-1 Q 12,10 11.875,9.625 11.75,9.25 11.5,9 11.25,8.75 11.125,8.375 11,8 11,7.5 11,7 10.875,6.625 10.75,6.25 10.5,6 10.25,5.75 10.125,5.375 10,5 9.875,4.625 9.75,4.25 9.5,4 9.25,3.75 9.125,3.375 9,3 9.125,2.625 9.25,2.25 9.5,2 9.75,1.75 10,1.5 M 14.5,24 Q 15,24 15.375,23.875 15.75,23.75 16,23.5 16.25,23.25 16.5,23 16.75,22.75 17,22.5 17.25,22.25 17.5,22 17.75,21.75 17.875,21.375 18,21 17.875,20.625 17.75,20.25 17.5,20 17.25,19.75 17,19.5 16.75,19.25 16.5,19 16.25,18.75 16,18.5 15.75,18.25 15.375,18.125 15,18 14.5,18 14,18 13.625,18.125 13.25,18.25 13,18.5 12.75,18.75 12.5,19 12.25,19.25 12,19.5 11.75,19.75 11.5,20 11.25,20.25 11.125,20.625 11,21 11.125,21.375 11.25,21.75 11.5,22 q 0.25,0.25 0.5,0.5 0.25,0.25 0.5,0.5 0.25,0.25 0.5,0.5 0.25,0.25 0.625,0.375 Q 14,24 14.5,24 m 4.125,-6.125 Q 19,18 19.375,17.875 19.75,17.75 20,17.5 20.25,17.25 20.5,17 20.75,16.75 21,16.5 21.25,16.25 21.5,16 21.75,15.75 21.875,15.375 22,15 21.875,14.625 21.75,14.25 21.5,14 21.25,13.75 21,13.5 20.75,13.25 20.5,13 20.25,12.75 20,12.5 19.75,12.25 19.375,12.125 19,12 18.5,12 18,12 17.5,12 17,12 16.5,12 16,12 15.625,12.125 15.25,12.25 15,12.5 14.75,12.75 14.5,13 14.25,13.25 14.125,13.625 14,14 14.125,14.375 14.25,14.75 14.5,15 q 0.25,0.25 0.5,0.5 0.25,0.25 0.5,0.5 0.25,0.25 0.5,0.5 0.25,0.25 0.625,0.375 Q 17,17 17.375,17.125 17.75,17.25 18,17.5 q 0.25,0.25 0.625,0.375 M 25,23.125 V 23 22.625 22.25 22.5 q 0,0.25 0,0.5 v 0.25 -0.125"
         id="path2422" />
      <path
         style="fill:#000000;fill-opacity:0"
         d="M 0,0.5 V 0 H 0.5 1 1.5 2 2.5 3 3.5 4 4.5 5 5.5 6 6.5 7 7.5 8 8.5 9 9.5 10 10.5 11 11.5 12 12.5 13 13.5 14 14.5 15 15.5 16 16.5 17 17.5 18 18.5 19 19.5 20 20.5 21 21.5 22 22.5 23 23.5 24 24.5 25 25.5 26 26.5 27 27.5 28 28.5 29 29.5 30 30.5 31 31.5 32 V 0.5 1 1.5 2 2.5 3 3.5 4 4.5 5 5.5 6 6.5 7 7.5 8 8.5 9 9.5 10 10.5 11 11.5 12 12.5 13 13.5 14 14.5 15 15.5 16 16.5 17 17.5 18 18.5 19 19.5 20 20.5 21 21.5 22 22.5 23 23.5 24 24.5 25 25.5 26 26.5 27 27.5 28 28.5 29 29.5 30 30.5 31 31.5 32 H 31.5 31 30.5 30 29.5 29 28.5 28 27.5 27 26.5 26 25.5 25 24.5 24 23.5 23 22.5 22 21.5 21 20.5 20 19.5 19 18.5 18 17.5 17 16.5 16 15.5 15 14.5 14 13.5 13 12.5 12 11.5 11 10.5 10 9.5 9 8.5 8 7.5 7 6.5 6 5.5 5 4.5 4 3.5 3 2.5 2 1.5 1 0.5 0 V 31.5 31 30.5 30 29.5 29 28.5 28 27.5 27 26.5 26 25.5 25 24.5 24 23.5 23 22.5 22 21.5 21 20.5 20 19.5 19 18.5 18 17.5 17 16.5 16 15.5 15 14.5 14 13.5 13 12.5 12 11.5 11 10.5 10 9.5 9 8.5 8 7.5 7 6.5 6 5.5 5 4.5 4 3.5 3 2.5 2 1.5 1 0.5 M 8.5,31 Q 9,31 9.375,30.875 9.75,30.75 10,30.5 10.25,30.25 10.625,30.125 11,30 11.375,29.875 11.75,29.75 12,29.5 12.25,29.25 12.625,29.125 13,29 13.375,28.875 q 0.375,-0.125 0.5,-0.5 L 14,28 13.90625,28.28125 13.8125,28.5625 13.875,28.375 Q 13.9375,28.1875 13.9375,28 V 27.8125 27.90625 28 h 0.53125 Q 15,28 15.5,28 16,28 16.515625,27.984375 L 17.03125,27.96875 17.015625,27.859375 17,27.75 17.03125,27.96875 Q 17.0625,28.1875 17.125,28.375 L 17.1875,28.5625 17.09375,28.28125 17,28 17.125,28.375 Q 17.25,28.75 17.5,29 q 0.25,0.25 0.5,0.5 0.25,0.25 0.625,0.375 Q 19,30 19.5,30 q 0.5,0 1,0 0.5,0 0.875,-0.125 Q 21.75,29.75 22,29.5 22.25,29.25 22.5,29 22.75,28.75 23,28.5 23.25,28.25 23.5,28 23.75,27.75 23.875,27.375 24,27 24.125,26.625 24.25,26.25 24.5,26 24.75,25.75 24.875,25.375 25,25 25,24.5 q 0,-0.5 0,-1 0,-0.5 0,-1 0,-0.5 0,-1 0,-0.5 0,-1 0,-0.5 0,-1 0,-0.5 0,-1 0,-0.5 0,-1 Q 25,17 24.875,16.625 24.75,16.25 24.5,16 24.25,15.75 24.125,15.375 24,15 23.875,14.625 23.75,14.25 23.5,14 23.25,13.75 23.125,13.375 23,13 22.875,12.625 22.75,12.25 22.5,12 22.25,11.75 22.125,11.375 22,11 21.875,10.625 21.75,10.25 21.5,10 21.25,9.75 21,9.5 20.75,9.25 20.5,9 20.25,8.75 20.125,8.375 20,8 19.875,7.625 19.75,7.25 19.5,7 19.25,6.75 19,6.5 18.75,6.25 18.5,6 18.25,5.75 18,5.5 17.75,5.25 17.5,5 17.25,4.75 17,4.5 16.75,4.25 16.5,4 16.25,3.75 16,3.5 15.75,3.25 15.5,3 15.25,2.75 15,2.5 14.75,2.25 14.5,2 14.25,1.75 14,1.5 13.75,1.25 13.375,1.125 13,1 12.5,1 12,1 11.5,1 11,1 10.625,1.125 10.25,1.25 10,1.5 9.75,1.75 9.5,2 9.25,2.25 9.125,2.625 9,3 9.125,3.375 9.25,3.75 9.5,4 9.75,4.25 9.875,4.625 10,5 10.125,5.375 10.25,5.75 10.5,6 10.75,6.25 10.875,6.625 11,7 11,7.5 11,8 11.125,8.375 11.25,8.75 11.5,9 11.75,9.25 11.875,9.625 12,10 12,10.5 q 0,0.5 0,1 0,0.5 0,1 V 13 L 11.625,12.875 Q 11.25,12.75 11,12.5 10.75,12.25 10.375,12.125 10,12 9.625,11.875 9.25,11.75 9,11.5 8.75,11.25 8.375,11.125 8,11 7.5,11 7,11 6.625,11.125 6.25,11.25 6,11.5 5.75,11.75 5.5,12 5.25,12.25 5,12.5 4.75,12.75 4.5,13 4.25,13.25 4.125,13.625 4,14 4,14.5 4,15 4,15.5 4,16 4.125,16.375 4.25,16.75 4.5,17 4.75,17.25 4.875,17.625 5,18 5.125,18.375 5.25,18.75 5.5,19 5.75,19.25 5.875,19.625 6,20 5.875,20.375 5.75,20.75 5.5,21 5.25,21.25 5.125,21.625 5,22 4.875,22.375 4.75,22.75 4.5,23 4.25,23.25 4,23.5 3.75,23.75 3.5,24 3.25,24.25 3.125,24.625 3,25 3,25.5 3,26 3,26.5 3,27 3.125,27.375 3.25,27.75 3.5,28 3.75,28.25 4,28.5 4.25,28.75 4.5,29 4.75,29.25 5,29.5 5.25,29.75 5.5,30 5.75,30.25 6,30.5 6.25,30.75 6.625,30.875 7,31 7.5,31 8,31 8.5,31 M 12,13.125 V 13 12.625 12.25 12.5 q 0,0.25 0,0.5 v 0.25 -0.125"
         id="path2420" />
    </g>
  </g>
</svg>

<svg version="1.1" id="svg2408" width="32" height="32" xmlns="http://www.w3.org/2000/svg"><g id="g2414"><g id="g2418"><path style="fill:#9e172c;fill-opacity:1" d="m21 22.5.6-.4.9-.1.9.1q.4.1.6.4l.6.4.4.1v1.5l-.1.9q-.1.4-.4.6l-.4.6-.2.8q-.1.4-.4.6l-.5.5-.5.5-.5.5-.6.4-.9.1h-1l-.9-.1q-.4-.1-.6-.4l-.5-.5-.4-.6-.1-.9.1-.9q.1-.4.4-.6l.5-.5.5-.5.5-.5.5-.5.5-.5.5-.5.5-.5m4 .9v-.6 1-.4" id="path2430"/><path style="fill:#9e172c;fill-opacity:1" d="m13 18.5.6-.4.9-.1.9.1.6.4.5.5.5.5.5.5.4.6q.1.4 0 .8t-.4.6l-.5.5-.5.5-.5.5-.6.4-.9.1-.9-.1-.6-.4-.5-.5-.5-.5-.5-.5-.4-.6q-.1-.4 0-.8l.4-.6.5-.5.5-.5.5-.5" id="path2428"/><path style="fill:#f98f4a;fill-opacity:1" d="m15 12.5.6-.4.9-.1h2l.9.1.6.4.5.5.5.5.5.5.4.6q.1.4 0 .8l-.4.6-.5.5-.5.5-.5.5-.6.4q-.4.1-.8 0t-.6-.4l-.6-.4-.8-.2q-.4-.1-.6-.4l-.5-.5-.5-.5-.5-.5-.4-.6q-.1-.4 0-.8l.4-.6.5-.5" id="path2426"/><path style="fill:#9e172c;fill-opacity:1" d="m6 11.5.6-.4.9-.1.9.1.6.4.6.4.8.2.6.4.6.4.4.1v.5l-.1.9-.4.6-.5.5-.5.5-.5.5-.5.5-.4.6-.2.8-.4.6-.4.6-.1.9.1.9.4.6.4.6.2.8.4.6.5.5.6.4.8.2.6.4.5.5.5.5.5.5.4.6q.1.4 0 .8-.2.4-.5.5l-.8.2-.6.4-.6.4-.8.2-.6.4-.6.4-.9.1h-1l-.9-.1-.6-.4-.5-.5-.5-.5-.5-.5-.5-.5-.5-.5-.4-.6-.1-.9v-1l.1-.9q.1-.4.4-.6l.5-.5.5-.5.4-.6.2-.8.4-.6.4-.6q.1-.4 0-.8l-.4-.6-.4-.6-.2-.8-.4-.6-.4-.6-.1-.9v-1l.1-.9.4-.6.5-.5.5-.5.5-.5m6 1.9v-.7 1.1-.4" id="path2424"/><path style="fill:#e05438;fill-opacity:1" d="m10 1.5.6-.4.9-.1h1l.9.1.6.4.5.5.5.5.5.5.5.5.5.5.5.5.5.5.5.5.5.5.5.5.5.5.4.6.2.8.4.6.5.5.5.5.4.6.2.8.4.6.4.6.2.8.4.6.4.6.2.8.4.6.4.6.1.9V23l-.4-.1q-.4-.1-.6-.4l-.6-.4-.9-.1-.9.1q-.4.1-.6.4l-.5.5-.5.5-.5.5-.5.5-.5.5-.5.5-.5.5-.4.6-.1.9v.5-.8 1-.2H14v.2-.8.3l.1.3-.1-.4-.4-.6-.5-.5-.5-.5-.5-.5-.6-.4-.8-.2-.6-.4-.5-.5-.4-.6-.2-.8-.4-.6-.4-.6-.1-.9.1-.9.4-.6.4-.6.2-.8.4-.6.5-.5.5-.5.5-.5.5-.5.4-.6.1-.9v-3l-.1-.9-.4-.6-.4-.6-.1-.9-.1-.9-.4-.6-.4-.6-.2-.8-.4-.6-.4-.6q-.1-.4 0-.8l.4-.6.5-.5M14.5 24l.9-.1.6-.4.5-.5.5-.5.5-.5.4-.6q.1-.4 0-.8t-.4-.6l-.5-.5-.5-.5-.5-.5-.6-.4-.9-.1-.9.1-.6.4-.5.5-.5.5-.5.5-.4.6q-.1.4 0 .8l.4.6.5.5.5.5.5.5.6.4.9.1m4.1-6.1q.4.1.8 0t.6-.4l.5-.5.5-.5.5-.5.4-.6q.1-.4 0-.8l-.4-.6-.5-.5-.5-.5-.5-.5-.6-.4-.9-.1h-2l-.9.1-.6.4-.5.5-.4.6q-.1.4 0 .8l.4.6.5.5.5.5.5.5.6.4.8.2q.4.1.6.4l.6.4M25 23v-.9 1.1-.2" id="path2422"/><path style="fill:#000;fill-opacity:0" d="M0 .5V0h32v32H0V.5M8.5 31l.9-.1.6-.4.6-.4.8-.2.6-.4.6-.4.8-.2q.3-.1.5-.5l.1-.4v.3l-.2.3v-.2l.1-.4v-.2.2H17v-.2.2l.1.4v.2-.3L17 28l.1.4q.1.4.4.6l.5.5.6.4.9.1h1l.9-.1q.4-.1.6-.4l.5-.5.5-.5.5-.5.4-.6.2-.8q.1-.4.4-.6l.4-.6.1-.9v-7l-.1-.9q-.1-.4-.4-.6l-.4-.6-.2-.8-.4-.6-.4-.6-.2-.8-.4-.6-.4-.6-.2-.8-.4-.6-.5-.5-.5-.5-.4-.6-.2-.8-.4-.6-.5-.5-.5-.5-.5-.5-.5-.5-.5-.5-.5-.5-.5-.5-.5-.5-.5-.5-.5-.5-.5-.5-.6-.4-.9-.1h-1l-.9.1-.6.4-.5.5-.4.6q-.1.4 0 .8l.4.6.4.6.2.8.4.6.4.6.1.9.1.9.4.6.4.6.1.9V13l-.4-.1-.6-.4-.6-.4-.8-.2-.6-.4-.6-.4-.9-.1-.9.1-.6.4-.5.5-.5.5-.5.5-.4.6-.1.9v1l.1.9.4.6.4.6.2.8.4.6.4.6q.1.4 0 .8l-.4.6-.4.6-.2.8-.4.6-.5.5-.5.5-.4.6-.1.9v1l.1.9q.1.4.4.6l.5.5.5.5.5.5.5.5.5.5.6.4.9.1h1M12 13.1v-.8 1-.2" id="path2420"/></g></g></svg>
